icons/truck-fill.svg

<svg viewBox="0 0 24 24" fill="currentColor" xmlns="http://www.w3.org/2000/svg"><path d="M17 8H20L23 12.0557V18H20.9646C20.7219 19.6961 19.2632 21 17.5 21C15.7368 21 14.2781 19.6961 14.0354 18H8.96456C8.72194 19.6961 7.26324 21 5.5 21C3.73676 21 2.27806 19.6961 2.03544 18H1V6C1 5.44772 1.44772 5 2 5H16C16.5523 5 17 5.44772 17 6V8ZM17 10V13H21V12.715L18.9917 10H17Z"/></svg>

<svg xmlns="http://www.w3.org/2000/svg" viewBox="0 0 24 24">
    <g>
        <path fill="none" d="M0 0h24v24H0z"/>
        <path d="M17 8h3l3 4.056V18h-2.035a3.5 3.5 0 0 1-6.93 0h-5.07a3.5 3.5 0 0 1-6.93 0H1V6a1 1 0 0 1 1-1h14a1 1 0 0 1 1 1v2zm0 2v3h4v-.285L18.992 10H17z"/>
    </g>
</svg>
